**kern	**kern	**kern	**kern
*staff4	*staff3	*staff2	*staff1
=1-	=1-	=1-	=1-
*clefF4	*clefG2	*clefF4	*clefG2
*k[]	*k[]	*k[b-e-a-]	*k[b-e-a-]
*E-:	*E-:	*E-:	*E-:
*M6/8	*M6/8	*M6/8	*M6/8
2.r	2.r	4EE-/	4r
.	.	8G\ 8B-\	2r
.	.	4G\ 4B-\	.
.	.	8BBB-/	.
=2	=2	=2	=2
2.r	2.r	4EE-/	4r
.	.	8G\ 8B-\	8r
.	.	4G\ 4B-\	8r
.	.	.	8e-/L
.	.	8BBB-/	8g/J
=3	=3	=3	=3
2.r	2.r	4EE-/	8b-\L
.	.	.	8ee-\
.	.	8G\ 8B-\	8bn\J
.	.	4G\ 4B-\	8een\L
.	.	.	8cc\
.	.	8BBB-/	8ff\J
=4	=4	=4	=4
2.r	2.r	4EE-/	4.bb-\
.	.	8G\ 8B-\	.
.	.	4G\ 4B-\	[4.ee-\
.	.	8BBB-/	.
=5	=5	=5	=5
2.r	2.r	4EE-/	8ee-\L]
.	.	.	8gg\
.	.	8G\ 8c\	8ee-\J
.	.	4G\ 4c\	8dd\L
.	.	.	8cc\
.	.	8DD/	8b-\J
=6	=6	=6	=6
2.r	2.r	4GG/	8a-/L
.	.	.	8b-/
.	.	8G\ 8B-\	[8g/J
.	.	4G\ 4B-\	4.g/]
.	.	8DD/	.
=7	=7	=7	=7
!!linebreak:original
2.r	2.r	4BB-/	8r
.	.	.	8d/L
.	.	8G\ 8B-\	8e-/J
.	.	4G\ 4B-\	8f/L
.	.	.	8g/
.	.	8CC/	[8a-/J
=8	=8	=8	=8
2.r	2.r	4FF/	4.a-/]
.	.	8A-\ 8c\	.
.	.	4A-\ 4c\	8g/L
.	.	.	8f/
.	.	8GG/	8g/J
=9	=9	=9	=9
2.r	2.r	4AA-/	8a-\L
.	.	.	8ee-\
.	.	8E-\ 8c\	8cc\J
.	.	4.F\ 4.e-\	8dd\L
.	.	.	8b-\
.	.	.	8g\J
=10	=10	=10	=10
2.r	2.r	4AAn/	4.an/
.	.	8F#\ 8d\	.
.	.	4F#\ 4d\	4.aan\
.	.	8EEn/	.
=11	=11	=11	=11
2.r	2.r	4AAn/	16aan\LL
.	.	.	16bbn\
.	.	.	16aa\
.	.	.	16een\
.	.	8Gn\ 8c#\	16cc#\
.	.	.	16ee\JJ
.	.	4Gn\ 4c#\	[4.f/
.	.	8FF/	.
=12	=12	=12	=12
!!pagebreak:original
2.r	2.r	4BB-/	8f/L]
.	.	.	8an/
.	.	8A-\ 8Bn\	8f/J
.	.	4A-\ 4B\	8a-/L
.	.	.	8f-/
.	.	[8EE-/	8g/J
=13	=13	=13	=13
2.r	2.r	8EE-\L] 8BB-\	4e-/
.	.	8E-\	.
.	.	8G\J	8b-\ 8gg\
.	.	8B-\L	4b-\ 4gg\
.	.	8e-\	.
.	.	8c\J	8cc\
=14	=14	=14	=14
2.r	2.r	[4.B-\	4ff\
.	.	.	8f/ 8a-/
.	.	8B-\L]	4f/ 4a-/
.	.	8A-\	.
.	.	8G\J	8en/ 8g/
=15	=15	=15	=15
2.r	4.d#/ 4.f#/	4.F#\	8r
.	.	.	8an/L
.	.	.	8bn/J
.	4.e/ 4.f#/	4G\	8cc#\L
.	.	.	8ff#\
.	.	8F#\	8dd#\J
=16	=16	=16	=16
2.r	2.r	4E#\	4.b-\
.	.	8B-\ 8g#\	.
.	.	8B-\L 8g#\	4dd#\
.	.	8F#\	.
.	.	8En\J	8ff#\
=17	=17	=17	=17
!!linebreak:original
2.r	2.r	4E-\	4.ccc#\
.	.	8A-\ 8en\	.
.	.	4G\ 4e\	4bbn\
.	.	8BB-/	8ee-\
=18	=18	=18	=18
2.r	2.r	4E-\	4.ddd\
.	.	8A-\ 8en\	.
.	.	4A-\ 4e\	4ccc\
.	.	8C/	8gg\
=19	=19	=19	=19
2.r	2.r	8D\L	4.eee-\
.	.	8G\	.
.	.	8B-\J	.
*	*	*clefG2	*
.	.	8d/L	[4.ddd\
.	.	8g/	.
.	.	8b-/J	.
=20	=20	=20	=20
2.r	2.r	4.ee-\	8ddd\L]
.	.	.	8ddd-\
.	.	.	8ccc\J
.	.	4.dd-\ 4.ee-\	8bb-\L
.	.	.	8ccc\
.	.	.	8bb-\J
=21	=21	=21	=21
2.r	2.r	4cc\ 4een\	[2.aan\
.	.	8bn\ 8dd\	.
.	.	4f/ 4cc/	.
.	.	8g-/ 8b-/	.
=22	=22	=22	=22
!!linebreak:original
2.r	2.d/	4.a-/	8aa\L]
.	.	.	8bb-\
.	.	.	8ccc\J
.	.	4g/	8ddd\L
.	.	.	8eee-\
.	.	8f/	8fff\J
=23	=23	=23	=23
2.r	2.r	8r	4.aaa-\
.	.	8c/L	.
.	.	8f/J	.
.	.	8a-\L	4.eee-\
.	.	8cc\	.
.	.	8ee-\J	.
=24	=24	=24	=24
2.r	2.r	8r	4.aaa-\
.	.	8c-/L	.
.	.	8e-/J	.
.	.	8a-\L	4.eee-\
.	.	8cc-\	.
.	.	8ee-\J	.
=25	=25	=25	=25
2.r	2.r	4gg\	4bb-\ 4ggg\ 4bbb-\
.	.	8gg\	8bb-\ 8ggg\ 8bbb-\
.	.	8r	4bb-\ 4ggg\ 4bbb-\
.	.	8e-/L	.
.	.	8GG/J	8b-\ 8gg\ 8bb-\
=26	=26	=26	=26
2.r	2.r	8BB-/L	4b-\ 4gg\ 4bb-\
.	.	8E-/	.
.	.	8BBn/J	8bb-\ 8ggg\ 8bbb-\
.	.	8En/L	4bb-\ 4ggg\ 4bbb-\
.	.	8C/	.
.	.	8F/J	8b-\ 8gg\ 8bb-\
=27	=27	=27	=27
!!pagebreak:original
2.r	4a-\ 4ff#\ 4aa\	4.B-/	8r
.	.	.	4bb-\
.	4a-\ 4ffn\ 4aa-\	.	.
.	.	4C/	4bb-\
.	4g\ 4ee\ 4gg\	.	.
.	.	8D/	8bb-\
=28	=28	=28	=28
2.r	4.g-\ 4.ee-\ 4.gg-\	[4.BB-/	4r
.	.	.	8bb-\
.	8r	4.BB-/] 4.F/ 4.d/ 4.f/	8ccc\L
.	4r	.	8bb-\
.	.	.	8aa-\J
=29	=29	=29	=29
2.r	2.r	4GG/	4.gg\
.	.	8G/ 8B-/	.
.	.	4G/ 4B-/	4.ee-\
.	.	8BBB-/	.
=30	=30	=30	=30
2.r	2.r	4E-/	8ee-\L
.	.	.	8eee-\
.	.	8G/ 8Bn/	8eee-\J
.	.	4G/ 4B/	8eee-\L
.	.	.	8eee-\
.	.	8EEE-/	8eee-\J
=31	=31	=31	=31
2.r	2.r	4AAA-/	4.eee-\
.	.	8E-/ 8c/	.
.	.	4F/ 4d/	4.ccc\
.	.	8G/ 8e-/	.
=32	=32	=32	=32
2.c\	2.r	4A-/ 4f/	8ccc\L
.	.	.	8aa-\
.	.	8c/ 8a-/	8ff\J
.	.	8r	4g\ 4ee-\
.	.	8f/L	.
.	.	8d/J	8b-\ 8gg\
=33	=33	=33	=33
!!linebreak:original
2.c\	2.r	4r	4.dd\ 4.bb-\
.	.	8e-/	.
.	.	4e-/	4.bn\ 4.ee-\
.	.	8f/	.
=34	=34	=34	=34
4.c\	2.r	4g/	4.bn\ 4.ee-\
.	.	8a-/	.
4c\	.	4.g/	4.cc\ 4.ee-\
8r	.	.	.
=35	=35	=35	=35
2.r	2.r	4.g/	4.ccc\ 4.eee-\
.	.	4g/	4.dd\ 4.ff\
.	.	8d/ 8f/	.
=36	=36	=36	=36
2.r	2.r	4A-/ 4e-/	4.dd\ 4.ff\
.	.	8B-/ 8d/	.
*	*	*clefG2	*
.	.	4F/ 4c/	8dd\L 8ff\
.	.	.	8cc\ 8ee-\
.	.	8B-/ 8d/	8g\J 8dd\
=37	=37	=37	=37
2.r	2.r	4G/ 4d/	8ee-\L 8gg\
.	.	.	8dd\ 8ff\
.	.	8B-/ 8e-/	8a-\J 8ee-\
*	*	*clefF4	*
.	.	4B-\ 4b-\	8r
.	.	.	8b-\L
.	.	8An\ 8an\	8een\J
=38	=38	=38	=38
2.r	2.r	8An\ 8an\	8cc\L
.	.	4A-\ 4a-\	8ff\
.	.	.	8gg\J
.	.	8r	4.ee-\
.	.	8E-\L	.
.	.	8D\J	.
=39	=39	=39	=39
!!linebreak:original
2.r	2.r	8C/L	24ff\LL
.	.	.	24ee-\
.	.	.	24dd\JJ
.	.	8BB-/	4ee-\
.	.	8BB-/J	.
.	.	8C/L	24ff\LL
.	.	.	24ee-\
.	.	.	24dd\JJ
.	.	8BB-/	4ee-\
.	.	8BB-/J	.
=40	=40	=40	=40
2.r	2.r	24C/LL	4r
.	.	24BB-/	.
.	.	24AAn/JJ	.
.	.	4BB-/	.
.	.	.	8r
.	.	4.BB-/	8aan\L 8ccc#\
.	.	.	8aa\ 8ccc#\
.	.	.	8aa-\J 8cccn\
=41	=41	=41	=41
2.r	2.r	2.EE-\ 2.BB-\ 2.B-\ 2.d\	8gg\L 8bbn\
.	.	.	8gg-\ 8bb-\
.	.	.	8dd\J 8aa-\
.	.	.	8cc\L 8een\
.	.	.	8g\ 8dd\
.	.	.	8a-\J 8cc#\
=42	=42	=42	=42
2.r	2.r	2.EE-\ 2.BB-\ 2.B-\ 2.d\	8f/L 8cc/
.	.	.	8en/ 8a-/
.	.	.	8d/J 8f/
.	.	.	4c/ 4f#/
.	.	.	8c-/ 8g/
=43	=43	=43	=43
!!pagebreak:original
2.r	2.B/ 2.e/	2.EE-/ 2.BB-/	8r
.	.	.	8g/L
.	.	.	8b-/J
.	.	.	8cc\L
.	.	.	8ff\
.	.	.	8bb-\J
=44	=44	=44	=44
2.r	2.B/ 2.e/	2.CCC/ 2.EE-/ 2.BB-/	2.ggg\
==	==	==	==
*-	*-	*-	*-
